icons/testicles.svg

<svg width="48" height="48" viewBox="0 0 48 48" fill="none" xmlns="http://www.w3.org/2000/svg">
<path d="M9.00006 13.9995C9.00006 10.2209 11.3284 6.98843 14.6248 5.65405L15.3753 7.50793C12.8081 8.5471 11.0001 11.0633 11.0001 13.9995V30.3774L10.3333 30.613C9.45903 30.922 9.24986 31.1919 9.16148 31.3759C9.02687 31.6561 9.00006 32.0586 9.00006 32.9995C9.00006 34.6766 9.68683 36.454 10.8178 37.8082C11.9481 39.1616 13.4379 39.9995 15.0001 39.9995C16.5622 39.9995 18.052 39.1616 19.1823 37.8082C20.3133 36.454 21.0001 34.6766 21.0001 32.9995C21.0001 32.0586 20.9733 31.6561 20.8386 31.3759C20.7503 31.1919 20.5411 30.922 19.6668 30.613L19.0001 30.3774V19.9995C19.0001 17.2381 21.2387 14.9995 24.0001 14.9995H25.0001V25.9995C25.0001 29.2903 28.3008 31.9995 32.0001 31.9995C35.6993 31.9995 39.0001 29.2903 39.0001 25.9995V15.9995H41.0001V25.9995C41.0001 30.7096 36.4603 33.9995 32.0001 33.9995C27.5399 33.9995 23.0001 30.7096 23.0001 25.9995V17.1702C21.8349 17.582 21.0001 18.6933 21.0001 19.9995V28.9993C21.7557 29.3574 22.3131 29.8267 22.6413 30.5097C23.001 31.2583 23.0005 32.1367 23.0001 32.9187L23.0001 32.9995C23.0001 35.1884 22.1198 37.411 20.7173 39.0902C19.3141 40.7704 17.3039 41.9995 15.0001 41.9995C12.6962 41.9995 10.686 40.7704 9.28279 39.0902C7.8803 37.411 7.00006 35.1884 7.00006 32.9995L7.00003 32.9187C6.9996 32.1367 6.99911 31.2583 7.35877 30.5097C7.68697 29.8267 8.24444 29.3574 9.00006 28.9993V13.9995Z" fill="black"/>
<path fill-rule="evenodd" clip-rule="evenodd" d="M32 15C29.2386 15 27 17.2386 27 20V25C27 27.7614 29.2386 30 32 30C34.7614 30 37 27.7614 37 25V20C37 17.9497 35.7659 16.1876 34 15.416V6H32V15ZM35 25V20C35 18.3431 33.6569 17 32 17C30.3431 17 29 18.3431 29 20V25C29 26.6569 30.3431 28 32 28C33.6569 28 35 26.6569 35 25Z" fill="black"/>
</svg>

<svg
  xmlns="http://www.w3.org/2000/svg"
  width="24"
  height="24"
  viewBox="0 0 24 24"
  fill="none"
  stroke="currentColor"
  stroke-width="2"
  stroke-linecap="round"
  stroke-linejoin="round"
>
  <path d="M9 14a9 9 0 0 1 5.625-8.346l.75 1.854A7 7 0 0 0 11 13.999v16.378l-.667.236c-.874.309-1.083.579-1.172.763-.134.28-.16.683-.16 1.623 0 1.678.686 3.455 1.817 4.81 1.13 1.353 2.62 2.19 4.182 2.19s3.052-.837 4.182-2.19C20.313 36.453 21 34.676 21 32.998c0-.94-.027-1.343-.161-1.623-.089-.184-.298-.454-1.172-.763L19 30.377V20a5 5 0 0 1 5-5h1v11c0 3.29 3.3 6 7 6s7-2.71 7-6V16h2v10c0 4.71-4.54 8-9 8s-9-3.29-9-8v-8.83A3 3 0 0 0 21 20v9c.756.357 1.313.827 1.641 1.51.36.748.36 1.627.36 2.409v.08c0 2.19-.881 4.412-2.284 6.091S17.304 42 15 42s-4.314-1.23-5.717-2.91C7.88 37.411 7 35.188 7 33v-.081c0-.782 0-1.66.359-2.41.328-.682.885-1.152 1.641-1.51z" />
  <path
    fill-rule="evenodd"
    d="M32 15a5 5 0 0 0-5 5v5a5 5 0 0 0 10 0v-5a5 5 0 0 0-3-4.584V6h-2zm3 10v-5a3 3 0 1 0-6 0v5a3 3 0 1 0 6 0"
    clip-rule="evenodd"
  />
</svg>
